icons/behance.svg

<?xml version="1.0" encoding="UTF-8" standalone="no"?>
<svg width="512px" height="95px" viewBox="0 0 512 95" version="1.1" xmlns="http://www.w3.org/2000/svg" xmlns:xlink="http://www.w3.org/1999/xlink" preserveAspectRatio="xMidYMid">
	<g fill="#0A0B09">
		<path d="M42.3830069,77.1622621 C44.4027586,77.1622621 46.3201103,76.9821793 48.124469,76.5796414 C49.9535448,76.1771034 51.5778207,75.5450483 52.9478621,74.6057931 C54.3179034,73.7053793 55.4513655,72.4695172 56.2776276,70.8946759 C57.1038897,69.3374897 57.4993655,67.3142069 57.4993655,64.8672 C57.4993655,60.0755862 56.1505103,56.671669 53.4704552,54.6060138 C50.7833379,52.5686069 47.1993379,51.5552 42.7926069,51.5552 L20.5329655,51.5552 L20.5329655,77.1622621 L42.3830069,77.1622621 L42.3830069,77.1622621 Z M41.2530759,37.5793655 C44.8794483,37.5793655 47.8808276,36.7177931 50.2607448,34.969931 C52.6159448,33.2538483 53.76,30.4113655 53.76,26.5131034 C53.76,24.3521103 53.3786483,22.5618759 52.6159448,21.1741793 C51.8285241,19.7864828 50.7833379,18.6989241 49.462731,17.9397517 C48.1527172,17.1488 46.6732138,16.6014897 44.9536,16.3084138 C43.2692966,15.9764966 41.5002483,15.8493793 39.6888276,15.8493793 L20.5329655,15.8493793 L20.5329655,37.5793655 L41.2530759,37.5793655 L41.2530759,37.5793655 Z M43.9013517,0.00915862069 C48.3469241,0.00915862069 52.3617103,0.394041379 56.0304552,1.18852414 C59.6780138,1.96182069 62.7923862,3.25417931 65.4230069,5.02675862 C68.0147862,6.7958069 70.0416,9.1510069 71.4928552,12.1170759 C72.9088,15.0407724 73.622069,18.6989241 73.622069,23.0279724 C73.622069,27.7101241 72.5592276,31.6189793 70.4335448,34.7439448 C68.2937379,37.8653793 65.1475862,40.4253793 60.9456552,42.4133517 C66.6694621,44.0588138 70.9067034,46.9577931 73.7174069,51.0749793 C76.5422345,55.2204138 77.922869,60.1850483 77.922869,66.0006621 C77.922869,70.7181241 77.0189241,74.7752828 75.2180966,78.1897931 C73.3960828,81.6466759 70.9172966,84.4503172 67.8629517,86.6113103 C64.7838897,88.7934897 61.2457931,90.3930483 57.2839724,91.4347034 C53.3645241,92.4763586 49.2967724,92.9989517 45.1301517,92.9989517 L0.0600275862,92.9989517 L0.0600275862,0.00915862069 L43.9013517,0.00915862069 L43.9013517,0.00915862069 Z"></path>
		<path d="M128.360166,41.4776276 C126.160331,39.0447448 122.438621,37.727669 117.89771,37.727669 C114.942234,37.727669 112.495228,38.2255448 110.539034,39.2389517 C108.625214,40.2382345 107.053903,41.4846897 105.856883,42.950069 C104.663393,44.4401655 103.847724,46.0114759 103.374566,47.6922483 C102.901407,49.3306483 102.618924,50.8172138 102.530648,52.1307586 L132.622124,52.1307586 C132.180745,47.4132966 130.567062,43.9281655 128.360166,41.4776276 L128.360166,41.4776276 Z M107.1104,76.851531 C109.878731,79.5563034 113.882924,80.9192828 119.070014,80.9192828 C122.798786,80.9192828 126.022621,79.9764966 128.727393,78.0944552 C131.407448,76.2194759 133.038786,74.2103172 133.670841,72.1270069 L149.955972,72.1270069 C147.339476,80.230731 143.367062,86.0180966 137.946924,89.4996966 C132.593876,92.9989517 126.061462,94.7432828 118.452083,94.7432828 C113.148469,94.7432828 108.37451,93.8817103 104.091366,92.1938759 C99.8082207,90.4813241 96.2277517,88.0802207 93.2157793,84.9517241 C90.2814897,81.8091034 88.0039724,78.0944552 86.3796966,73.7336276 C84.7730759,69.3939862 83.9609379,64.5882483 83.9609379,59.3799724 C83.9609379,54.3447172 84.8048552,49.6413793 86.4467862,45.2946759 C88.1275586,40.9338483 90.4474483,37.1697655 93.4982621,34.0130207 C96.559669,30.8386207 100.186041,28.3351172 104.409159,26.5060414 C108.635807,24.6804966 113.293241,23.7659586 118.452083,23.7659586 C124.147641,23.7659586 129.136993,24.8605793 133.413076,27.0957241 C137.675034,29.2955586 141.167228,32.2792828 143.914372,36.0151172 C146.657986,39.7474207 148.610648,44.0129103 149.832386,48.793931 C151.04,53.5714207 151.467255,58.5607724 151.117683,63.7867034 L102.530648,63.7867034 C102.530648,69.1079724 104.331476,74.1467586 107.1104,76.851531 L107.1104,76.851531 Z"></path>
		<path d="M177.385048,0.00915862069 L177.385048,35.072331 L177.808772,35.072331 C180.15691,31.1705379 183.12651,28.3351172 186.7776,26.5766621 C190.421628,24.8040828 193.977379,23.9283862 197.441324,23.9283862 C202.381241,23.9283862 206.427807,24.5780966 209.588083,25.9163586 C212.75189,27.2793379 215.255393,29.1225379 217.088,31.5201103 C218.885297,33.9070897 220.156469,36.8201931 220.901517,40.2523586 C221.632441,43.6774621 222.010262,47.455669 222.010262,51.6222897 L222.010262,92.9989517 L203.426428,92.9989517 L203.426428,54.9803034 C203.426428,49.4365793 202.561324,45.2699586 200.838179,42.544 C199.111503,39.8145103 196.046566,38.444469 191.62571,38.444469 C186.625766,38.444469 183.009986,39.9592828 180.77131,42.950069 C178.490262,45.9408552 177.385048,50.8631172 177.385048,57.7133241 L177.385048,92.9989517 L158.808276,92.9989517 L158.808276,0.00915862069 L177.385048,0.00915862069"></path>
		<path d="M271.614234,61.7210483 C270.463117,62.1024 269.188414,62.4237241 267.874869,62.7026759 C266.518952,62.9604414 265.103007,63.1687724 263.634097,63.3523862 C262.17931,63.5289379 260.682152,63.7302069 259.230897,63.9915034 C257.846731,64.2633931 256.462566,64.6023724 255.14549,65.0437517 C253.803697,65.4816 252.627862,66.0642207 251.660359,66.7986759 C250.657545,67.5437241 249.859531,68.4759172 249.248662,69.5952552 C248.655448,70.7181241 248.337655,72.1764414 248.337655,73.8995862 C248.337655,75.5450483 248.655448,76.9327448 249.248662,78.073269 C249.859531,79.2032 250.657545,80.0859586 251.706262,80.7392 C252.751448,81.3924414 253.976717,81.8514759 255.339697,82.1057103 C256.723862,82.381131 258.153931,82.483531 259.61931,82.483531 C263.256276,82.483531 266.059917,81.8797241 268.058483,80.6685793 C270.046455,79.4503724 271.543614,77.9955862 272.479338,76.3006897 C273.432717,74.6057931 274.008276,72.8967724 274.195421,71.1736276 C274.439062,69.4398897 274.548524,68.0416 274.548524,66.9928828 L274.548524,60.0755862 C273.746979,60.7853241 272.804193,61.3326345 271.614234,61.7210483 L271.614234,61.7210483 Z M235.2128,35.5207724 C237.094841,32.6571034 239.520662,30.3372138 242.472607,28.6034759 C245.424552,26.8520828 248.722538,25.6197517 252.430124,24.8817655 C256.123586,24.1225931 259.817048,23.7659586 263.567007,23.7659586 C266.939145,23.7659586 270.350124,23.9990069 273.863503,24.4792276 C277.320386,24.9559172 280.480662,25.8916414 283.347862,27.2864 C286.211531,28.6882207 288.545545,30.6055724 290.353434,33.1090759 C292.186041,35.5490207 293.114703,38.854069 293.114703,42.950069 L293.114703,78.0414897 C293.114703,81.0923034 293.298317,83.9912828 293.623172,86.7666759 C293.9904,89.5667862 294.940248,91.6677517 295.837131,93.0448552 L276.946097,92.9989517 C276.391724,92.1938759 275.93269,90.9332966 275.717297,89.8351448 C275.498372,88.7617103 275.346538,87.6564966 275.261793,86.5230345 C272.320441,89.5667862 268.870621,91.7065931 264.852303,92.928331 C260.865766,94.1324138 256.801545,94.7432828 252.627862,94.7432828 C249.428745,94.7432828 246.448552,94.3372138 243.659034,93.5533241 C240.91189,92.7694345 238.471945,91.5547586 236.392166,89.9128276 C234.301793,88.2391172 232.695172,86.162869 231.522869,83.6487724 C230.357628,81.1205517 229.757352,78.1121103 229.757352,74.6375724 C229.757352,70.802869 230.445903,67.6461241 231.805352,65.1744 C233.12949,62.7026759 234.849103,60.7147034 236.999503,59.2422621 C239.114593,57.7592276 241.543945,56.6434207 244.294621,55.9160276 C247.020579,55.1815724 249.78891,54.5742345 252.532524,54.1469793 C255.31851,53.7197241 258.030345,53.3736828 260.738648,53.1053241 C263.454014,52.8404966 265.805683,52.4626759 267.906648,51.9330207 C269.979366,51.4174897 271.638952,50.6336 272.857159,49.6413793 C274.054179,48.6456276 274.629738,47.1979034 274.548524,45.2699586 C274.548524,43.2784552 274.195421,41.6894897 273.556303,40.5030621 C272.913655,39.3342897 272.045021,38.4338759 270.982179,37.7771034 C269.89109,37.120331 268.66229,36.6895448 267.246345,36.4600276 C265.805683,36.2516966 264.280276,36.1351724 262.652469,36.1351724 C259.033159,36.1351724 256.16949,36.9402483 254.139145,38.4868414 C252.052303,40.0793379 250.851752,42.6993655 250.480993,46.3575172 L231.928938,46.3575172 C232.197297,41.9896276 233.270731,38.3844414 235.2128,35.5207724 L235.2128,35.5207724 Z"></path>
		<path d="M320.850979,25.6868414 L320.850979,35.072331 L321.26411,35.072331 C323.605186,31.1705379 326.624221,28.3351172 330.374179,26.5766621 C334.092359,24.8040828 337.944717,23.9283862 341.850041,23.9283862 C346.811145,23.9283862 350.882428,24.5780966 354.028579,25.9163586 C357.231228,27.2793379 359.720607,29.1225379 361.524966,31.5201103 C363.375228,33.9070897 364.6464,36.8201931 365.387917,40.2523586 C366.136497,43.6774621 366.507255,47.455669 366.507255,51.6222897 L366.507255,92.9989517 L347.916359,92.9989517 L347.916359,54.9803034 C347.916359,49.4365793 347.044193,45.2699586 345.310455,42.544 C343.552,39.8145103 340.518841,38.0631172 336.066207,38.0631172 C331.034483,38.0631172 327.369269,39.9592828 325.116469,42.950069 C322.849545,45.9408552 321.726676,50.8631172 321.726676,57.7133241 L321.726676,92.9989517 L303.337048,92.9989517 L303.337048,25.6868414 L320.850979,25.6868414"></path>
		<path d="M407.657931,37.727669 C404.6848,37.727669 402.230731,38.3844414 400.256883,39.7474207 C398.240662,41.106869 396.5952,42.8300138 395.338152,44.9662897 C394.077572,47.0884414 393.205407,49.4365793 392.665159,52.0071724 C392.160221,54.5742345 391.877738,57.1165793 391.877738,59.6448 C391.877738,62.0882759 392.160221,64.563531 392.665159,67.0917517 C393.205407,69.6058483 394.0352,71.8763034 395.207503,73.9454897 C396.397462,75.9723034 397.979366,77.6389517 399.977931,78.9560276 C401.965903,80.2660414 404.384662,80.9192828 407.255393,80.9192828 C411.708028,80.9192828 415.119007,79.6763586 417.509517,77.2152276 C419.889434,74.7399724 421.361876,71.4137379 421.983338,67.2471172 L439.84331,67.2471172 C438.618041,76.1771034 435.143503,82.9990621 429.426759,87.7024 C423.688828,92.3739586 416.340745,94.7432828 407.393103,94.7432828 C402.336662,94.7432828 397.742786,93.8817103 393.505545,92.1938759 C389.275366,90.4813241 385.684303,88.1225931 382.725297,85.0788414 C379.76629,82.0280276 377.471117,78.4016552 375.790345,74.1856 C374.148414,69.9624828 373.322152,65.3262345 373.322152,60.2945103 C373.322152,55.0827034 374.088386,50.227531 375.610262,45.7395862 C377.125076,41.2692966 379.363752,37.3957517 382.347476,34.1472 C385.302952,30.8774621 388.918731,28.3351172 393.194814,26.5060414 C397.453241,24.6804966 402.319007,23.7659586 407.781517,23.7659586 C411.778648,23.7659586 415.616883,24.3062069 419.324469,25.3160828 C423.003807,26.3471448 426.312386,27.9396414 429.214897,30.0759172 C432.124469,32.198069 434.507917,34.8428138 436.333462,37.9960276 C438.137821,41.1492414 439.168883,44.9274483 439.454897,49.2459034 L421.319503,49.2459034 C420.118952,41.5623724 415.563917,37.727669 407.657931,37.727669"></path>
		<path d="M98.7489103,6.24849655 L136.442703,6.24849655 L136.442703,15.4256552 L98.7489103,15.4256552 L98.7489103,6.24849655 Z"></path>
		<path d="M489.12949,41.4776276 C486.901407,39.0447448 483.151448,37.727669 478.667034,37.727669 C475.71509,37.727669 473.261021,38.2255448 471.269517,39.2389517 C469.352166,40.2382345 467.600772,41.4846897 466.424938,42.950069 C465.249103,44.4401655 464.405186,46.0114759 463.914372,47.6922483 C463.476524,49.3306483 463.169324,50.8172138 463.08811,52.1307586 L493.405572,52.1307586 C492.911228,47.4132966 491.336386,43.9281655 489.12949,41.4776276 L489.12949,41.4776276 Z M467.650207,76.851531 C470.429131,79.5563034 474.624,80.9192828 479.849931,80.9192828 C483.571641,80.9192828 486.788414,79.9764966 489.475531,78.0944552 C492.162648,76.2194759 493.829297,74.2103172 494.42251,72.1270069 L510.707641,72.1270069 C508.105269,80.230731 504.108138,86.0180966 498.72331,89.4996966 C493.349076,92.9989517 486.84491,94.7432828 479.207283,94.7432828 C473.889545,94.7432828 469.097931,93.8817103 464.846566,92.1938759 C460.570483,90.4813241 456.986483,88.0802207 453.988634,84.9517241 C451.022566,81.8091034 448.748579,78.0944552 447.131366,73.7336276 C445.524745,69.3939862 444.726731,64.5882483 444.726731,59.3799724 C444.726731,54.3447172 445.552993,49.6413793 447.198455,45.2946759 C448.865103,40.9338483 451.234428,37.1697655 454.267586,34.0130207 C457.343117,30.8386207 460.93771,28.3351172 465.150234,26.5060414 C469.380414,24.6804966 474.07669,23.7659586 479.207283,23.7659586 C484.895779,23.7659586 489.906317,24.8605793 494.140028,27.0957241 C498.412579,29.2955586 501.922428,32.2792828 504.648386,36.0151172 C507.392,39.7474207 509.365848,44.0129103 510.576993,48.793931 C511.770483,53.5714207 512.229517,58.5607724 511.887007,63.7867034 L463.08811,63.7867034 C463.08811,69.1079724 464.864221,74.1467586 467.650207,76.851531 L467.650207,76.851531 Z"></path>
	</g>
</svg>

<svg xmlns="http://www.w3.org/2000/svg" viewBox="0 0 511.937 94.734">
  <g fill="#0a0b09">
    <path d="M42.323 77.153c2.02 0 3.937-.18 5.741-.583 1.83-.402 3.454-1.034 4.824-1.973 1.37-.9 2.503-2.137 3.33-3.711.826-1.558 1.221-3.581 1.221-6.028 0-4.792-1.349-8.195-4.029-10.261-2.687-2.038-6.27-3.051-10.677-3.051h-22.26v25.607zm-1.13-39.583c3.626 0 6.628-.861 9.008-2.61 2.355-1.715 3.499-4.558 3.499-8.456 0-2.161-.381-3.951-1.144-5.339-.788-1.388-1.833-2.475-3.153-3.234-1.31-.791-2.79-1.339-4.51-1.632-1.684-.332-3.453-.459-5.264-.459H20.473v21.73zM43.841 0c4.446 0 8.46.385 12.13 1.18 3.647.773 6.761 2.065 9.392 3.838 2.592 1.769 4.619 4.124 6.07 7.09 1.416 2.924 2.129 6.582 2.129 10.91 0 4.683-1.063 8.592-3.188 11.717-2.14 3.121-5.286 5.681-9.488 7.67 5.723 1.645 9.96 4.544 12.771 8.66 2.825 4.146 4.206 9.11 4.206 14.927 0 4.717-.904 8.774-2.705 12.189-1.822 3.457-4.3 6.26-7.355 8.421-3.08 2.182-6.617 3.782-10.58 4.824A47.21 47.21 0 0 1 45.07 92.99H0V0zM128.3 41.468c-2.2-2.432-5.921-3.75-10.462-3.75-2.956 0-5.403.498-7.359 1.512-1.914 1-3.485 2.246-4.682 3.71-1.194 1.491-2.01 3.062-2.482 4.743-.474 1.638-.756 3.125-.844 4.439h30.091c-.441-4.718-2.055-8.203-4.262-10.654zm-21.25 35.374c2.769 2.705 6.773 4.068 11.96 4.068 3.729 0 6.953-.943 9.657-2.825 2.68-1.875 4.312-3.884 4.944-5.967h16.285c-2.617 8.104-6.589 13.89-12.01 17.373-5.352 3.499-11.885 5.243-19.494 5.243-5.304 0-10.078-.861-14.36-2.55-4.284-1.712-7.864-4.113-10.876-7.241-2.935-3.143-5.212-6.858-6.836-11.219-1.607-4.34-2.42-9.145-2.42-14.353 0-5.035.845-9.739 2.487-14.085 1.68-4.361 4-8.125 7.051-11.282 3.062-3.175 6.688-5.678 10.911-7.507 4.227-1.826 8.884-2.74 14.043-2.74 5.696 0 10.685 1.094 14.961 3.33 4.262 2.2 7.754 5.183 10.501 8.919 2.744 3.732 4.697 7.998 5.918 12.779 1.208 4.777 1.635 9.767 1.286 14.993H102.47c0 5.32 1.8 10.36 4.58 13.064zM177.325 0v35.063h.424c2.348-3.902 5.317-6.737 8.969-8.495 3.644-1.773 7.2-2.649 10.663-2.649 4.94 0 8.987.65 12.147 1.988 3.164 1.363 5.667 3.206 7.5 5.604 1.797 2.387 3.068 5.3 3.813 8.732.731 3.425 1.11 7.204 1.11 11.37V92.99h-18.585V54.97c0-5.544-.865-9.71-2.588-12.436-1.727-2.73-4.791-4.1-9.212-4.1-5 0-8.616 1.515-10.855 4.506-2.28 2.99-3.386 7.913-3.386 14.763V92.99h-18.577V0h18.577M271.554 61.712c-1.15.381-2.426.703-3.74.982a67.86 67.86 0 0 1-4.24.65 78.226 78.226 0 0 0-4.403.638c-1.384.272-2.768.611-4.086 1.053-1.341.437-2.517 1.02-3.485 1.755a8.5 8.5 0 0 0-2.411 2.796c-.594 1.123-.911 2.581-.911 4.304 0 1.646.317 3.034.91 4.174.612 1.13 1.41 2.013 2.458 2.666 1.045.653 2.27 1.112 3.634 1.367 1.384.275 2.814.377 4.28.377 3.636 0 6.44-.603 8.438-1.815 1.988-1.218 3.486-2.673 4.421-4.367.954-1.695 1.53-3.404 1.716-5.128.244-1.733.353-3.132.353-4.18v-6.918c-.801.71-1.744 1.257-2.934 1.646zm-36.401-26.2a21.832 21.832 0 0 1 7.26-6.918c2.952-1.751 6.25-2.983 9.957-3.721a55.014 55.014 0 0 1 11.137-1.116c3.372 0 6.783.233 10.296.713 3.457.477 6.618 1.412 9.485 2.807 2.864 1.402 5.198 3.32 7.005 5.823 1.833 2.44 2.762 5.745 2.762 9.84v35.092c0 3.051.183 5.95.508 8.726.367 2.8 1.317 4.9 2.214 6.278l-18.89-.046c-.555-.805-1.014-2.066-1.23-3.164a26.429 26.429 0 0 1-.455-3.312c-2.942 3.044-6.391 5.183-10.41 6.405a42.01 42.01 0 0 1-12.224 1.815c-3.2 0-6.18-.406-8.969-1.19-2.747-.784-5.187-1.998-7.267-3.64-2.09-1.674-3.697-3.75-4.87-6.264-1.164-2.529-1.765-5.537-1.765-9.012 0-3.834.689-6.991 2.048-9.463 1.324-2.471 3.044-4.46 5.194-5.932 2.116-1.483 4.545-2.599 7.296-3.326a77.883 77.883 0 0 1 8.237-1.77c2.786-.426 5.498-.772 8.207-1.04 2.715-.266 5.067-.643 7.168-1.173 2.072-.516 3.732-1.3 4.95-2.292 1.197-.996 1.773-2.443 1.691-4.371 0-1.992-.353-3.58-.992-4.767a7.253 7.253 0 0 0-2.574-2.726c-1.09-.657-2.32-1.088-3.736-1.317a32.004 32.004 0 0 0-4.594-.325c-3.619 0-6.483.805-8.513 2.352-2.087 1.592-3.287 4.212-3.658 7.87h-18.552c.268-4.368 1.342-7.973 3.284-10.836zM320.791 25.678v9.385h.413c2.341-3.902 5.36-6.737 9.11-8.495 3.718-1.773 7.57-2.649 11.476-2.649 4.961 0 9.032.65 12.179 1.988 3.202 1.363 5.692 3.206 7.496 5.604 1.85 2.387 3.121 5.3 3.863 8.732.748 3.425 1.12 7.204 1.12 11.37V92.99h-18.592V54.97c0-5.544-.872-9.71-2.606-12.436-1.758-2.73-4.791-4.481-9.244-4.481-5.032 0-8.697 1.896-10.95 4.887-2.266 2.99-3.39 7.913-3.39 14.763V92.99h-18.389V25.678h17.514M407.598 37.719c-2.973 0-5.427.656-7.401 2.02a16 16 0 0 0-4.919 5.218c-1.26 2.122-2.133 4.47-2.673 7.041-.505 2.567-.787 5.11-.787 7.638 0 2.443.282 4.918.787 7.447.54 2.514 1.37 4.784 2.542 6.853a15.042 15.042 0 0 0 4.77 5.01c1.989 1.31 4.408 1.964 7.278 1.964 4.453 0 7.864-1.243 10.254-3.704 2.38-2.475 3.853-5.801 4.474-9.968h17.86c-1.225 8.93-4.7 15.752-10.416 20.455-5.738 4.672-13.086 7.041-22.034 7.041-5.056 0-9.65-.861-13.887-2.55-4.23-1.712-7.822-4.07-10.78-7.114-2.96-3.051-5.255-6.678-6.936-10.894-1.642-4.223-2.468-8.859-2.468-13.89 0-5.212.766-10.068 2.288-14.556 1.515-4.47 3.754-8.343 6.737-11.592 2.956-3.27 6.572-5.812 10.848-7.641 4.258-1.826 9.124-2.74 14.586-2.74 3.998 0 7.836.54 11.543 1.55 3.68 1.031 6.988 2.623 9.89 4.76a25.557 25.557 0 0 1 7.12 7.92c1.804 3.153 2.835 6.931 3.12 11.25H421.26c-1.2-7.684-5.755-11.518-13.661-11.518M98.689 6.24h37.694v9.176H98.689zM489.07 41.468c-2.229-2.432-5.979-3.75-10.463-3.75-2.952 0-5.406.498-7.398 1.512-1.917 1-3.668 2.246-4.844 3.71-1.176 1.491-2.02 3.062-2.51 4.743-.439 1.638-.746 3.125-.827 4.439h30.318c-.495-4.718-2.07-8.203-4.277-10.654zm-21.48 35.374c2.78 2.705 6.974 4.068 12.2 4.068 3.722 0 6.938-.943 9.626-2.825 2.687-1.875 4.353-3.884 4.946-5.967h16.286c-2.603 8.104-6.6 13.89-11.985 17.373-5.374 3.499-11.878 5.243-19.516 5.243-5.317 0-10.11-.861-14.36-2.55-4.277-1.712-7.86-4.113-10.858-7.241-2.966-3.143-5.24-6.858-6.858-11.219-1.606-4.34-2.404-9.145-2.404-14.353 0-5.035.826-9.739 2.471-14.085 1.667-4.361 4.036-8.125 7.07-11.282 3.075-3.175 6.67-5.678 10.882-7.507 4.23-1.826 8.927-2.74 14.057-2.74 5.689 0 10.7 1.094 14.933 3.33 4.273 2.2 7.782 5.183 10.508 8.919 2.744 3.732 4.718 7.998 5.929 12.779 1.193 4.777 1.652 9.767 1.31 14.993h-48.799c0 5.32 1.776 10.36 4.562 13.064z"/>
  </g>
</svg>
